X: 1
T: Tam The Gun
R: waltz
M: 3/4
L: 1/8
K: Gmaj
a g>f|:"C" e2 e<g"D" B>A|"G" G2 GB dB|"Bm" d2 de/f/"Em" ge|"Am" a3 a"G/B" g>f|
"C" e2 e<g"D" B>A|"G" G2 GB dB|"Bm" de/f/"Em" gB"Am" A>G|1 "D" A3 a"G/B" g>f:|2 "D" A3 d B>A||
"G" G2 G>A Bd|"Bm" B3 A Bd|"C" e2 ed e/f/g|"D" a3 a"Em" g>f|
"C" e2 e<g"D" B>A|"G" G2 GB dB|"Bm" de/f/"Em" gB"Am" A>G|"D" A3 d B>A|
"G" G2 G>A Bd|"Bm" B3 A Bd|"C" e2 ed e/f/g|"D" a2"B7/D#" b>a"Em" g>f|
"C" e2 e<g"D" B>A|"G" G2 GB dB|"Bm" de/f/"Em" gB"Am" A>G|"D" A3 a"G/B" g>f||

